dist/img/filtr.svg

<svg width="14" height="14" viewBox="0 0 14 14" fill="none" xmlns="http://www.w3.org/2000/svg">
<path d="M13.0334 0.828125H0.965288C0.784431 0.828125 0.669341 1.02542 0.784431 1.18984L5.2072 7.3883C5.4045 7.65136 5.51959 7.99663 5.51959 8.3419V13.7512C5.53603 13.932 5.68401 14.0471 5.83198 13.9813L8.34754 13.0277C8.42974 13.0113 8.47907 12.9127 8.47907 12.8304V8.3419C8.47907 7.99663 8.59416 7.6678 8.79146 7.3883L13.2142 1.18984C13.3293 1.02542 13.2142 0.828125 13.0334 0.828125Z" fill="#A8A8A8"/>
</svg>

<svg width="14" height="14" fill="none" xmlns="http://www.w3.org/2000/svg"><path d="M13.033.828H.965c-.18 0-.296.197-.18.362l4.422 6.198c.197.263.313.609.313.954v5.41c.016.18.164.295.312.23l2.516-.954c.082-.017.131-.115.131-.198V8.342c0-.345.115-.674.312-.954l4.423-6.198a.225.225 0 00-.18-.362z" fill="#A8A8A8"/></svg>
